X:368
T:Earl Morris’s Farewell to Scotland. RH.368
R:air
S:Rev.R.Harrison’s MS,c1815,Cumbria
O:England
A:Temple Sowerby,Cumbria
Z:vmp.Simon Wilson. Review PJH, 2008.
M:C|
L:1/8
Q:1/2=70
K:G
G2G2 Bdd2|c>AB>G A>GFD|\
G2G2 Bdd2|e>gf>a g2gb:|!
g>ab>g a>gfd|e>fge dcBG|\
g>ab>g a>gfd|e>gf>a g2gb||!
c’abg ageg|dBgB c/B/A/G/ AB|\
G2G2 Bdd2|e>gf>a g2gb||!
BGdG e/d/c/B/ dg|BGdG ABce|\
BGdG e/d/c/B/ df|egfa g2gb||!
gbgb fad2|efge dcBA|\
((3gab) ((3gab) ((3fga) d2|eg f/g/a/f/ g2gb||!
ec’db caBg|B/c/d/B/ BG F/G/A/G/ FD|\
((3GAB) ((3ABc) ((3Bcd) ((3cde)|egfa g2gb|]

